_includes/icons/color-tumblr.svg

<svg fill="#666" height="50" viewBox="0 0 48 48" width="50" xmlns="http://www.w3.org/2000/svg"><path d="m42 37c0 2.761719-2.238281 5-5 5h-26c-2.761719 0-5-2.238281-5-5v-26c0-2.761719 2.238281-5 5-5h26c2.761719 0 5 2.238281 5 5z" fill="#01579b"/><path d="m32 34.890625c0 .09375-.035156.183594-.109375.246094-.085937.078125-2.167969 1.863281-6.945312 1.863281-5.722657 0-5.890625-6.410156-5.890625-7.140625l-.054688-7.859375h-2.671875c-.183594 0-.328125-.148437-.328125-.328125v-3.101562c0-.136719.082031-.257813.207031-.308594.054688-.019531 5.171875-2.082031 5.171875-6.933594 0-.183594.144532-.328125.328125-.328125h2.964844c.183594 0 .328125.144531.328125.328125v6.671875h5.671875c.179688 0 .328125.144531.328125.328125v3.34375c0 .183594-.148437.328125-.328125.328125h-5.671875v7.710938c0 .101562.316406 2.519531 2.761719 2.519531 2.019531 0 3.71875-1.042969 3.738281-1.054688.101563-.066406.226563-.066406.332031-.011718.105469.058593.167969.171875.167969.289062z" fill="#fff"/></svg>

<svg xmlns="http://www.w3.org/2000/svg" viewBox="0 0 48 48" width="50" height="50" fill="#666"><path d="M 42 37 C 42 39.761719 39.761719 42 37 42 L 11 42 C 8.238281 42 6 39.761719 6 37 L 6 11 C 6 8.238281 8.238281 6 11 6 L 37 6 C 39.761719 6 42 8.238281 42 11 Z" fill="#01579b"/><path d="M 32 34.890625 C 32 34.984375 31.964844 35.074219 31.890625 35.136719 C 31.804688 35.214844 29.722656 37 24.945313 37 C 19.222656 37 19.054688 30.589844 19.054688 29.859375 L 19 22 L 16.328125 22 C 16.144531 22 16 21.851563 16 21.671875 L 16 18.570313 C 16 18.433594 16.082031 18.3125 16.207031 18.261719 C 16.261719 18.242188 21.378906 16.179688 21.378906 11.328125 C 21.378906 11.144531 21.523438 11 21.707031 11 L 24.671875 11 C 24.855469 11 25 11.144531 25 11.328125 L 25 18 L 30.671875 18 C 30.851563 18 31 18.144531 31 18.328125 L 31 21.671875 C 31 21.855469 30.851563 22 30.671875 22 L 25 22 L 25 29.710938 C 25 29.8125 25.316406 32.230469 27.761719 32.230469 C 29.78125 32.230469 31.480469 31.1875 31.5 31.175781 C 31.601563 31.109375 31.726563 31.109375 31.832031 31.164063 C 31.9375 31.222656 32 31.335938 32 31.453125 Z" fill="#fff"/></svg>
